docs/img/icons/money-6.svg

<svg width="50" height="50" viewBox="0 0 50 50" fill="none" xmlns="http://www.w3.org/2000/svg">
<g clip-path="url(#clip0_3300_11574)">
<path fill-rule="evenodd" clip-rule="evenodd" d="M25 0C11.199 0 0 11.199 0 25C0 38.801 11.199 50 25 50C38.801 50 50 38.801 50 25C50 11.199 38.801 0 25 0ZM25 1.04167C38.2375 1.04167 48.9583 11.7615 48.9583 25C48.9583 38.2385 38.2375 48.9583 25 48.9583C11.7625 48.9583 1.04167 38.2385 1.04167 25C1.04167 11.7615 11.7625 1.04167 25 1.04167ZM26.8573 12.3313C26.7192 12.3313 26.5867 12.3861 26.489 12.4838C26.3913 12.5815 26.3365 12.7139 26.3365 12.8521V13.3854C26.1866 13.437 26.0398 13.4971 25.8969 13.5656L25.5229 13.1917C25.4252 13.094 25.2928 13.0392 25.1547 13.0392C25.0166 13.0392 24.8841 13.094 24.7865 13.1917L23.6823 14.2958C23.6338 14.3442 23.5953 14.4017 23.569 14.465C23.5428 14.5282 23.5293 14.5961 23.5293 14.6646C23.5293 14.7331 23.5428 14.8009 23.569 14.8642C23.5953 14.9275 23.6338 14.985 23.6823 15.0333L24.0573 15.4094C23.9887 15.5515 23.9285 15.6976 23.8771 15.8469H23.3417C23.2035 15.8469 23.0711 15.9017 22.9734 15.9994C22.8757 16.0971 22.8208 16.2296 22.8208 16.3677V17.9302C22.8208 18.0683 22.8757 18.2008 22.9734 18.2985C23.0711 18.3962 23.2035 18.451 23.3417 18.451H23.875C23.9271 18.6021 23.9865 18.7479 24.0562 18.8927L23.6812 19.2677C23.5839 19.3653 23.5293 19.4976 23.5293 19.6354C23.5293 19.7733 23.5839 19.9055 23.6812 20.0031L24.7854 21.1073C24.8338 21.1558 24.8913 21.1943 24.9545 21.2205C25.0178 21.2468 25.0857 21.2603 25.1542 21.2603C25.2227 21.2603 25.2905 21.2468 25.3538 21.2205C25.4171 21.1943 25.4745 21.1558 25.5229 21.1073L25.8979 20.7333C26.0406 20.8031 26.1865 20.8625 26.3365 20.9146V21.4458C26.3365 21.584 26.3913 21.7164 26.489 21.8141C26.5867 21.9118 26.7192 21.9667 26.8573 21.9667H28.4198C28.5579 21.9667 28.6904 21.9118 28.7881 21.8141C28.8857 21.7164 28.9406 21.584 28.9406 21.4458V20.9125C29.0917 20.8604 29.2375 20.801 29.3802 20.7312L29.7562 21.1083C29.8539 21.206 29.9864 21.2608 30.1245 21.2608C30.2626 21.2608 30.395 21.206 30.4927 21.1083L31.5979 20.0042C31.6464 19.9558 31.6849 19.8983 31.7112 19.835C31.7374 19.7718 31.7509 19.7039 31.7509 19.6354C31.7509 19.5669 31.7374 19.4991 31.7112 19.4358C31.6849 19.3725 31.6464 19.315 31.5979 19.2667L31.2219 18.8906C31.2906 18.7469 31.3521 18.601 31.4042 18.451H31.9354C32.0736 18.451 32.206 18.3962 32.3037 18.2985C32.4014 18.2008 32.4562 18.0683 32.4562 17.9302V16.3677C32.4562 16.2296 32.4014 16.0971 32.3037 15.9994C32.206 15.9017 32.0736 15.8469 31.9354 15.8469H31.4021C31.3514 15.697 31.292 15.5502 31.224 15.4073L31.5979 15.0323C31.6952 14.9347 31.7499 14.8024 31.7499 14.6646C31.7499 14.5267 31.6952 14.3945 31.5979 14.2969L30.4937 13.1927C30.4454 13.1442 30.3879 13.1057 30.3246 13.0795C30.2613 13.0532 30.1935 13.0397 30.125 13.0397C30.0565 13.0397 29.9887 13.0532 29.9254 13.0795C29.8621 13.1057 29.8046 13.1442 29.7562 13.1927L29.3812 13.5677C29.2382 13.4982 29.091 13.4373 28.9406 13.3854V12.8521C28.9406 12.7139 28.8857 12.5815 28.7881 12.4838C28.6904 12.3861 28.5579 12.3313 28.4198 12.3313H26.8573ZM27.3781 13.3729H27.899V13.725C27.8988 13.8431 27.9389 13.9578 28.0125 14.0501C28.0861 14.1425 28.189 14.2071 28.3042 14.2333C28.6323 14.3083 28.9469 14.4385 29.2312 14.6187C29.3313 14.6815 29.4498 14.7083 29.5671 14.6949C29.6845 14.6815 29.7938 14.6285 29.8771 14.5448L30.125 14.2969L30.4927 14.6646L30.2469 14.9104C30.1638 14.9937 30.1114 15.1027 30.0981 15.2196C30.0849 15.3365 30.1116 15.4544 30.174 15.5542C30.351 15.8396 30.4802 16.1552 30.5542 16.4833C30.5804 16.5985 30.645 16.7013 30.7374 16.775C30.8297 16.8486 30.9444 16.8887 31.0625 16.8885H31.4146V17.4094H31.0625C30.9446 17.4098 30.8303 17.4502 30.7383 17.524C30.6464 17.5978 30.5822 17.7006 30.5562 17.8156C30.4809 18.1442 30.3506 18.4576 30.1708 18.7427C30.1086 18.8426 30.0821 18.9606 30.0955 19.0775C30.1089 19.1944 30.1616 19.3033 30.2448 19.3865L30.4927 19.6354L30.125 20.0031L29.8792 19.7573C29.7957 19.6737 29.6864 19.621 29.569 19.6077C29.4517 19.5945 29.3333 19.6215 29.2333 19.6844C28.9478 19.8623 28.6344 19.9908 28.3062 20.0646C28.1909 20.0906 28.0878 20.1551 28.014 20.2475C27.9401 20.3399 27.8999 20.4546 27.9 20.5729V20.925H27.3792V20.5729C27.3788 20.455 27.3383 20.3407 27.2645 20.2488C27.1908 20.1568 27.0879 20.0926 26.9729 20.0667C26.6451 19.991 26.3324 19.8607 26.0479 19.6812C25.9479 19.6184 25.8296 19.5914 25.7122 19.6046C25.5949 19.6179 25.4855 19.6706 25.4021 19.7542L25.1542 20.0042L24.7865 19.6354L25.0323 19.3885C25.1156 19.3052 25.1682 19.196 25.1814 19.0789C25.1947 18.9618 25.1678 18.8436 25.1052 18.7437C24.9273 18.4583 24.7987 18.1449 24.725 17.8167C24.6992 17.7011 24.6348 17.5978 24.5424 17.5237C24.45 17.4497 24.3351 17.4094 24.2167 17.4094H23.8625V16.8885H24.2146C24.3327 16.8887 24.4474 16.8486 24.5397 16.775C24.6321 16.7013 24.6967 16.5985 24.7229 16.4833C24.7979 16.1552 24.9271 15.8427 25.1062 15.5583C25.1692 15.4585 25.1964 15.3402 25.1834 15.2228C25.1703 15.1055 25.1178 14.9961 25.0344 14.9125L24.7865 14.6646L25.1542 14.2969L25.401 14.5427C25.4843 14.6255 25.593 14.6778 25.7097 14.691C25.8264 14.7043 25.9441 14.6777 26.0438 14.6156C26.3292 14.4385 26.6427 14.3094 26.9708 14.2354C27.0864 14.2096 27.1897 14.1452 27.2638 14.0528C27.3378 13.9604 27.3781 13.8455 27.3781 13.7271V13.3729ZM17.6271 14.7708C17.4833 14.7708 17.7937 14.7396 17.1979 14.8229C16.8127 14.9289 16.4735 15.1595 16.2334 15.4788C15.9932 15.7981 15.8657 16.188 15.8708 16.5875V17.3344C13.3958 18.0312 11.4583 20.0938 11.4583 22.7271C11.4583 25.9729 14.35 28.4344 17.6531 28.4344C19.2604 28.4344 20.2844 29.4865 20.2844 30.575C20.2844 31.6646 19.2615 32.7125 17.6531 32.7125C16.0448 32.7125 15.025 31.6646 15.025 30.575C15.0302 30.0208 14.8083 29.5385 14.4656 29.2302C14.1281 28.9329 13.6925 28.7711 13.2427 28.776C12.8073 28.776 12.3656 28.9198 12.0198 29.2302C11.675 29.5396 11.4531 30.026 11.4604 30.5823C11.4635 33.276 13.4396 35.2594 15.8708 35.9719V36.7323C15.8635 37.2906 16.0854 37.7771 16.4302 38.0875C16.776 38.399 17.2188 38.5417 17.6531 38.5417C18.0885 38.5417 18.5302 38.399 18.876 38.0875C19.2219 37.7771 19.4458 37.2906 19.4385 36.7333V35.9698C21.9125 35.2698 23.85 33.2094 23.85 30.5771C23.85 27.3312 20.9573 24.8698 17.6531 24.8698C16.0469 24.8698 15.025 23.8177 15.025 22.7292C15.025 21.6562 16.0219 20.6302 17.5948 20.601H17.7188C19.2896 20.6323 20.2844 21.651 20.2844 22.7229C20.2792 23.2771 20.5 23.7594 20.8438 24.0677C21.1885 24.3792 21.6312 24.5219 22.0667 24.5219C22.501 24.5219 22.9438 24.3802 23.2885 24.0698C23.6344 23.7604 23.8562 23.274 23.849 22.7177C23.8469 20.0219 21.8698 18.0385 19.4375 17.326V16.5812C19.44 16.3428 19.3949 16.1063 19.3048 15.8855C19.2147 15.6647 19.0814 15.4641 18.9128 15.2955C18.7442 15.1269 18.5436 14.9936 18.3229 14.9035C18.1021 14.8134 17.8655 14.7683 17.6271 14.7708ZM27.6385 15.4354C26.6979 15.4354 25.926 16.2083 25.926 17.149C25.926 18.0896 26.6979 18.8635 27.6385 18.8635C28.5792 18.8635 29.3542 18.0896 29.3542 17.149C29.3542 16.2083 28.5792 15.4354 27.6385 15.4354ZM17.6427 15.8146H17.649C18.0698 15.8146 18.4021 16.1385 18.3958 16.5604V17.675C18.3955 17.7933 18.4354 17.9082 18.5091 18.0008C18.5827 18.0934 18.6857 18.1581 18.801 18.1844C21.0406 18.6885 22.8073 20.3969 22.8073 22.7198L22.8083 22.7302C22.8125 23.025 22.7229 23.1781 22.5927 23.2948C22.4452 23.4176 22.2586 23.4834 22.0667 23.4802C21.8744 23.4838 21.6873 23.4179 21.5396 23.2948C21.4104 23.1792 21.3208 23.025 21.326 22.7292V22.7187C21.326 21.0104 19.7687 19.5958 17.7385 19.5552H17.6146C17.6017 19.5547 17.5889 19.5547 17.576 19.5552C15.5417 19.5927 13.9823 21.0135 13.9823 22.725C13.9823 24.4583 15.575 25.9073 17.6531 25.9073C20.4448 25.9073 22.8094 27.949 22.8094 30.5729C22.8094 32.824 21.074 34.6271 18.8094 35.1042C18.6928 35.1287 18.5882 35.1924 18.513 35.2847C18.4377 35.3771 18.3964 35.4924 18.3958 35.6115V36.7469C18.4 37.0427 18.3094 37.1969 18.1802 37.3125C18.0327 37.4362 17.8456 37.5028 17.6531 37.5C17.4612 37.5028 17.2748 37.4363 17.1281 37.3125C16.999 37.1969 16.9094 37.0427 16.9125 36.7469V35.6177C16.9126 35.4994 16.8724 35.3847 16.7985 35.2923C16.7247 35.1999 16.6216 35.1354 16.5062 35.1094C14.2656 34.6073 12.5 32.8969 12.5 30.575V30.5625C12.4958 30.2667 12.5865 30.1125 12.7156 29.9969C12.8631 29.8731 13.0502 29.8066 13.2427 29.8094C13.4448 29.8094 13.6385 29.8802 13.7677 29.9969C13.8969 30.1125 13.9875 30.2667 13.9833 30.5625V30.575C13.9833 32.3073 15.576 33.7542 17.6531 33.7542C19.7312 33.7542 21.326 32.3073 21.326 30.575C21.326 28.8417 19.7323 27.3927 17.6531 27.3927C14.8625 27.3927 12.5 25.351 12.5 22.7271C12.5 20.476 14.2354 18.675 16.5 18.199C16.6169 18.1741 16.7216 18.1098 16.7968 18.0169C16.8719 17.924 16.9127 17.808 16.9125 17.6885V16.5667C16.9101 16.4691 16.9273 16.372 16.9629 16.2812C16.9984 16.1903 17.0518 16.1074 17.1198 16.0374C17.1878 15.9674 17.269 15.9116 17.3588 15.8733C17.4486 15.8351 17.5451 15.8151 17.6427 15.8146ZM27.6385 16.4771C27.7268 16.4769 27.8142 16.4941 27.8958 16.5276C27.9774 16.5612 28.0516 16.6105 28.1141 16.6728C28.1766 16.735 28.2263 16.809 28.2602 16.8904C28.2942 16.9718 28.3118 17.0592 28.312 17.1474C28.3122 17.2356 28.295 17.323 28.2614 17.4046C28.2279 17.4862 28.1785 17.5604 28.1163 17.6229C28.0541 17.6855 27.9801 17.7351 27.8987 17.7691C27.8172 17.803 27.7299 17.8206 27.6417 17.8208C27.4635 17.8212 27.2924 17.7509 27.1661 17.6252C27.0398 17.4994 26.9686 17.3287 26.9682 17.1505C26.9678 16.9723 27.0382 16.8013 27.1639 16.675C27.2896 16.5487 27.4604 16.4775 27.6385 16.4771ZM30.5396 21.9667C30.4014 21.9667 30.269 22.0215 30.1713 22.1192C30.0736 22.2169 30.0187 22.3494 30.0187 22.4875V23.4187C29.6958 23.5187 29.3833 23.6458 29.0833 23.8021L28.4281 23.149C28.3305 23.0513 28.198 22.9965 28.0599 22.9965C27.9218 22.9965 27.7893 23.0513 27.6917 23.149L26.0844 24.7531C26.0359 24.8015 25.9974 24.859 25.9711 24.9223C25.9449 24.9855 25.9314 25.0534 25.9314 25.1219C25.9314 25.1904 25.9449 25.2582 25.9711 25.3215C25.9974 25.3848 26.0359 25.4422 26.0844 25.4906L26.7406 26.1469C26.5844 26.4469 26.4562 26.7583 26.3552 27.0812H25.425C25.2869 27.0812 25.1544 27.1361 25.0567 27.2338C24.959 27.3315 24.9042 27.4639 24.9042 27.6021V29.875C24.9042 30.0131 24.959 30.1456 25.0567 30.2433C25.1544 30.341 25.2869 30.3958 25.425 30.3958H26.3573C26.4573 30.7188 26.5854 31.0292 26.7417 31.3292L26.0844 31.9865C25.9867 32.0841 25.9319 32.2166 25.9319 32.3547C25.9319 32.4928 25.9867 32.6252 26.0844 32.7229L27.6917 34.3281C27.7893 34.4258 27.9218 34.4806 28.0599 34.4806C28.198 34.4806 28.3305 34.4258 28.4281 34.3281L29.0844 33.6729C29.3854 33.8292 29.6958 33.9594 30.0187 34.0594V34.9865C30.0187 35.1246 30.0736 35.2571 30.1713 35.3547C30.269 35.4524 30.4014 35.5073 30.5396 35.5073H32.8125C32.9506 35.5073 33.0831 35.4524 33.1808 35.3547C33.2785 35.2571 33.3333 35.1246 33.3333 34.9865V34.0573C33.6562 33.9573 33.9667 33.8292 34.2667 33.6729L34.9229 34.3292C35.0205 34.4265 35.1528 34.4811 35.2906 34.4811C35.4285 34.4811 35.5607 34.4265 35.6583 34.3292L37.2656 32.7229C37.3633 32.6252 37.4181 32.4928 37.4181 32.3547C37.4181 32.2166 37.3633 32.0841 37.2656 31.9865L36.6104 31.3302C36.7675 31.0311 36.8972 30.7183 36.9979 30.3958H37.925C38.0631 30.3958 38.1956 30.341 38.2933 30.2433C38.391 30.1456 38.4458 30.0131 38.4458 29.875V27.6021C38.4458 27.4639 38.391 27.3315 38.2933 27.2338C38.1956 27.1361 38.0631 27.0812 37.925 27.0812H36.9958C36.8958 26.7585 36.7668 26.4454 36.6104 26.1458L37.2667 25.4896C37.364 25.392 37.4186 25.2597 37.4186 25.1219C37.4186 24.984 37.364 24.8518 37.2667 24.7542L35.6583 23.149C35.5607 23.0513 35.4282 22.9965 35.2901 22.9965C35.152 22.9965 35.0195 23.0513 34.9219 23.149L34.2667 23.8042C33.9679 23.6471 33.6555 23.5174 33.3333 23.4167V22.4875C33.3333 22.3494 33.2785 22.2169 33.1808 22.1192C33.0831 22.0215 32.9506 21.9667 32.8125 21.9667H30.5396ZM31.0604 23.0083H32.2917V23.7573C32.2916 23.8754 32.3316 23.9901 32.4052 24.0824C32.4789 24.1748 32.5817 24.2394 32.6969 24.2656C33.2 24.3802 33.6813 24.5781 34.1188 24.8531C34.2186 24.9157 34.3368 24.9426 34.4539 24.9294C34.571 24.9161 34.6802 24.8635 34.7635 24.7802L35.2906 24.2531L36.1615 25.1219L35.6365 25.649C35.5526 25.7321 35.4994 25.8414 35.4858 25.9587C35.4722 26.0761 35.4989 26.1946 35.5615 26.2948C35.8344 26.7323 36.0333 27.2115 36.1469 27.7156C36.1726 27.8308 36.2367 27.9339 36.3287 28.0079C36.4207 28.0819 36.5351 28.1224 36.6531 28.1229H37.4042V29.3542H36.6552C36.5376 29.3545 36.4235 29.3946 36.3316 29.468C36.2397 29.5414 36.1753 29.6437 36.149 29.7583C36.0344 30.2625 35.8365 30.7437 35.5615 31.1812C35.4986 31.2809 35.4714 31.3989 35.4842 31.516C35.4971 31.6331 35.5493 31.7424 35.6323 31.826L36.1615 32.3552L35.2906 33.224L34.7656 32.699C34.6822 32.6154 34.5728 32.5627 34.4555 32.5494C34.3381 32.5362 34.2198 32.5632 34.1198 32.626C33.6823 32.899 33.2031 33.0958 32.699 33.2094C32.5837 33.2351 32.4807 33.2992 32.4067 33.3912C32.3327 33.4832 32.2921 33.5976 32.2917 33.7156V34.4656H31.0604V33.7177C31.0601 33.6001 31.02 33.486 30.9466 33.3941C30.8732 33.3022 30.7709 33.2378 30.6562 33.2115C30.1522 33.0967 29.6712 32.8977 29.2333 32.6229C29.1336 32.5602 29.0155 32.5331 28.8984 32.5462C28.7813 32.5592 28.672 32.6116 28.5885 32.6948L28.0594 33.2219L27.1896 32.3531L27.7156 31.826C27.7992 31.7426 27.8519 31.6332 27.8652 31.5159C27.8784 31.3985 27.8514 31.2802 27.7885 31.1802C27.5155 30.7424 27.3183 30.2617 27.2052 29.7583C27.1792 29.643 27.1147 29.5399 27.0223 29.466C26.9299 29.3922 26.8151 29.352 26.6969 29.3521H25.9469V28.1208H26.6948C26.8129 28.1209 26.9276 28.0809 27.0199 28.0073C27.1123 27.9336 27.1769 27.8308 27.2031 27.7156C27.3177 27.2125 27.5167 26.7312 27.7917 26.2937C27.8543 26.1939 27.8811 26.0757 27.8679 25.9586C27.8546 25.8415 27.8021 25.7323 27.7188 25.649L27.1896 25.1198L28.0594 24.251L28.5865 24.776C28.6698 24.8591 28.7787 24.9115 28.8956 24.9248C29.0125 24.938 29.1304 24.9113 29.2302 24.849C29.6677 24.576 30.15 24.3792 30.6542 24.2656C30.7692 24.2397 30.872 24.1755 30.9458 24.0835C31.0196 23.9916 31.06 23.8773 31.0604 23.7594V23.0083ZM31.675 26.1333C30.9855 26.1366 30.3253 26.4121 29.8379 26.8998C29.3506 27.3876 29.0757 28.048 29.0729 28.7375C29.0757 29.427 29.3506 30.0874 29.8379 30.5752C30.3253 31.0629 30.9855 31.3384 31.675 31.3417C32.3648 31.3389 33.0256 31.0637 33.5134 30.5759C34.0012 30.0881 34.2764 29.4273 34.2792 28.7375C34.2792 27.3083 33.1042 26.1333 31.675 26.1333ZM31.675 27.175C32.5354 27.175 33.2375 27.8771 33.2375 28.7375C33.2375 29.5979 32.5354 30.3 31.675 30.3C31.2611 30.2989 30.8646 30.1339 30.5721 29.841C30.2796 29.5482 30.1151 29.1514 30.1146 28.7375C30.1146 27.8771 30.8146 27.175 31.675 27.175Z" fill="#397345"/>
</g>
<defs>
<clipPath id="clip0_3300_11574">
<rect width="50" height="50" fill="white"/>
</clipPath>
</defs>
</svg>

<svg width="50" height="50" fill="none" xmlns="http://www.w3.org/2000/svg"><g clip-path="url(#clip0_3300_11574)"><path fill-rule="evenodd" clip-rule="evenodd" d="M25 0C11.199 0 0 11.199 0 25s11.199 25 25 25 25-11.199 25-25S38.801 0 25 0zm0 1.042c13.237 0 23.958 10.72 23.958 23.958 0 13.239-10.72 23.958-23.958 23.958-13.238 0-23.958-10.72-23.958-23.958C1.042 11.761 11.762 1.042 25 1.042zm1.857 11.29a.52.52 0 00-.52.52v.533c-.15.052-.297.112-.44.18l-.374-.373a.52.52 0 00-.736 0l-1.105 1.104a.522.522 0 000 .737l.375.376a4.006 4.006 0 00-.18.438h-.535a.52.52 0 00-.521.52v1.563a.52.52 0 00.52.521h.534c.052.151.111.297.181.442l-.375.375a.52.52 0 000 .735l1.104 1.104a.52.52 0 00.738 0l.375-.374c.143.07.288.13.439.182v.53a.52.52 0 00.52.522h1.563a.52.52 0 00.52-.521v-.534a3.94 3.94 0 00.44-.18l.376.376a.52.52 0 00.737 0l1.105-1.104a.522.522 0 000-.737l-.376-.376c.069-.144.13-.29.182-.44h.531a.52.52 0 00.521-.52v-1.563a.52.52 0 00-.52-.521h-.534c-.05-.15-.11-.297-.178-.44l.374-.375a.521.521 0 000-.735l-1.104-1.104a.519.519 0 00-.738 0l-.375.375a4.12 4.12 0 00-.44-.183v-.533a.521.521 0 00-.521-.52h-1.563zm.521 1.04h.521v.353a.52.52 0 00.405.508c.328.075.643.205.927.386a.52.52 0 00.646-.074l.248-.248.368.368-.246.245a.521.521 0 00-.073.644c.177.286.306.601.38.93a.52.52 0 00.509.404h.352v.521h-.352a.521.521 0 00-.507.407 2.99 2.99 0 01-.385.927.521.521 0 00.074.644l.248.248-.368.368-.246-.246a.521.521 0 00-.646-.073 2.996 2.996 0 01-.927.38.52.52 0 00-.406.509v.352h-.52v-.352a.52.52 0 00-.407-.506 2.997 2.997 0 01-.925-.386.522.522 0 00-.646.073l-.248.25-.367-.369.245-.247a.52.52 0 00.073-.644 2.992 2.992 0 01-.38-.927.521.521 0 00-.508-.408h-.354v-.52h.352a.52.52 0 00.508-.406 2.99 2.99 0 01.383-.925.521.521 0 00-.072-.646l-.247-.247.367-.368.247.246a.52.52 0 00.643.073 3.02 3.02 0 01.927-.38.521.521 0 00.407-.509v-.354zm-9.75 1.399c-.145 0 .166-.031-.43.052a1.806 1.806 0 00-1.327 1.764v.747c-2.475.697-4.413 2.76-4.413 5.393 0 3.246 2.892 5.707 6.195 5.707 1.607 0 2.631 1.052 2.631 2.141 0 1.09-1.022 2.137-2.63 2.137-1.61 0-2.629-1.047-2.629-2.137.005-.554-.217-1.037-.56-1.345a1.82 1.82 0 00-1.222-.454 1.82 1.82 0 00-1.223.454c-.345.31-.567.796-.56 1.352.003 2.694 1.98 4.677 4.41 5.39v.76c-.006.559.215 1.045.56 1.355.346.312.789.455 1.223.455.436 0 .877-.143 1.223-.455.346-.31.57-.796.563-1.354v-.763c2.474-.7 4.411-2.76 4.411-5.393 0-3.246-2.893-5.707-6.197-5.707-1.606 0-2.628-1.052-2.628-2.14 0-1.074.997-2.1 2.57-2.129h.124c1.57.031 2.565 1.05 2.565 2.122-.005.554.216 1.036.56 1.345.345.311.787.454 1.223.454.434 0 .877-.142 1.221-.452.346-.31.568-.796.561-1.352-.002-2.696-1.98-4.68-4.412-5.392v-.745a1.792 1.792 0 00-1.81-1.81zm10.01.664a1.72 1.72 0 00-1.712 1.714c0 .94.772 1.714 1.713 1.714.94 0 1.715-.773 1.715-1.714 0-.94-.775-1.714-1.715-1.714zm-9.995.38h.006c.42 0 .753.324.747.745v1.115a.521.521 0 00.405.51c2.24.504 4.006 2.212 4.006 4.535l.001.01c.005.295-.085.448-.215.565a.801.801 0 01-.526.185.8.8 0 01-.527-.185c-.13-.116-.22-.27-.214-.566v-.01c0-1.709-1.557-3.123-3.588-3.164h-.162c-2.034.038-3.594 1.459-3.594 3.17 0 1.733 1.593 3.182 3.671 3.182 2.792 0 5.156 2.042 5.156 4.666 0 2.251-1.735 4.054-4 4.531a.52.52 0 00-.413.508v1.135c.004.296-.087.45-.216.566a.802.802 0 01-.527.187.796.796 0 01-.525-.188c-.129-.115-.219-.27-.215-.565v-1.13a.52.52 0 00-.407-.508c-2.24-.502-4.006-2.212-4.006-4.534v-.012c-.004-.296.086-.45.216-.566a.802.802 0 01.527-.188c.202 0 .396.071.525.188.129.116.22.27.215.566v.012c0 1.732 1.593 3.18 3.67 3.18 2.078 0 3.673-1.448 3.673-3.18 0-1.733-1.594-3.182-3.673-3.182-2.79 0-5.153-2.042-5.153-4.666 0-2.251 1.735-4.052 4-4.528a.522.522 0 00.413-.51v-1.122a.733.733 0 01.73-.752zm9.995.662a.673.673 0 01.623.928.67.67 0 11-.622-.928zm2.902 5.49a.52.52 0 00-.521.52v.932c-.323.1-.636.227-.936.383l-.655-.653a.52.52 0 00-.736 0l-1.608 1.604a.522.522 0 000 .738l.657.656c-.157.3-.285.611-.386.934h-.93a.52.52 0 00-.52.521v2.273a.52.52 0 00.52.52h.932c.1.324.228.634.385.934l-.658.657a.52.52 0 000 .737l1.608 1.605a.52.52 0 00.736 0l.656-.655c.301.156.612.286.935.386v.928a.52.52 0 00.52.52h2.273a.52.52 0 00.521-.52v-.93a5.6 5.6 0 00.934-.384l.656.656a.52.52 0 00.735 0l1.608-1.606a.52.52 0 000-.736l-.656-.657c.157-.299.287-.612.388-.934h.927a.52.52 0 00.52-.521v-2.273a.52.52 0 00-.52-.52h-.93a5.61 5.61 0 00-.385-.936l.657-.656a.52.52 0 000-.736l-1.609-1.605a.52.52 0 00-.736 0l-.655.655a5.587 5.587 0 00-.934-.387v-.93a.52.52 0 00-.52-.52H30.54zm.52 1.041h1.232v.75a.52.52 0 00.405.508c.503.114.984.312 1.422.587a.521.521 0 00.645-.073l.527-.527.87.869-.525.527a.52.52 0 00-.075.646c.273.437.472.916.586 1.42a.52.52 0 00.506.408h.751v1.231h-.749a.52.52 0 00-.506.404 4.58 4.58 0 01-.587 1.423.521.521 0 00.07.645l.53.53-.871.868-.525-.525a.52.52 0 00-.646-.073c-.438.273-.917.47-1.421.583a.52.52 0 00-.407.507v.75H31.06v-.748a.52.52 0 00-.404-.507 4.598 4.598 0 01-1.423-.588.52.52 0 00-.645.072l-.529.527-.87-.869.527-.527a.52.52 0 00.072-.646 4.588 4.588 0 01-.583-1.422.521.521 0 00-.508-.406h-.75v-1.231h.748a.52.52 0 00.508-.405c.115-.504.314-.985.589-1.422a.52.52 0 00-.073-.645l-.53-.53.87-.868.527.525a.52.52 0 00.644.073 4.6 4.6 0 011.424-.583.52.52 0 00.406-.507v-.75zm.615 3.125a2.615 2.615 0 00-2.602 2.605 2.615 2.615 0 002.602 2.604 2.615 2.615 0 002.604-2.604 2.616 2.616 0 00-2.604-2.605zm0 1.042c.86 0 1.562.702 1.562 1.563 0 .86-.702 1.562-1.562 1.562a1.564 1.564 0 01-1.56-1.563c0-.86.7-1.562 1.56-1.562z" fill="#397345"/></g><defs><clipPath id="clip0_3300_11574"><path fill="#fff" d="M0 0h50v50H0z"/></clipPath></defs></svg>
